packages/core/src/svgs/tokens/branded/QKC.svg

<svg width="24" height="24" viewBox="0 0 24 24" fill="none" xmlns="http://www.w3.org/2000/svg">
<path d="M21.3873 4.55127C21.1933 4.48533 20.9837 4.48054 20.7869 4.53757C20.5901 4.59459 20.4156 4.71067 20.2869 4.87011L15.4355 10.7469C14.5539 9.66539 13.6661 8.69629 12.7783 7.61472C12.7345 7.55844 12.497 7.28335 12.0718 7.25209C11.5405 7.21459 11.2153 7.61471 11.1841 7.63972C10.3089 8.7213 9.38982 9.66539 8.50827 10.7469L3.71928 4.89512C3.31291 4.52 2.77524 4.41998 2.40637 4.63254C2.15629 4.77633 2.04376 5.00765 2 5.12019V18.9119C2.025 18.9619 2.18756 19.3183 2.60643 19.4559C3.06909 19.606 3.4442 19.3434 3.48172 19.3183L8.49576 13.2477C9.45853 14.4168 10.4213 15.4608 11.3841 16.6301C11.453 16.6738 11.6779 16.8175 11.9843 16.8051C12.2657 16.7863 12.4595 16.6676 12.5283 16.6175L15.4355 13.2477L19.9869 18.7244C20.3182 19.3872 21.0247 19.6435 21.4872 19.4247C21.8999 19.2245 21.9875 18.6931 22 18.6306V5.37026C21.993 5.18771 21.9307 5.01159 21.8212 4.8653C21.7117 4.71901 21.5605 4.60949 21.3873 4.55127ZM3.86933 16.3736V7.62096L7.62049 12.041L3.86933 16.3736ZM12.1407 14.8856C12.0991 14.9285 12.0438 14.9552 11.9843 14.9608C11.8718 14.9732 11.7968 14.8919 11.778 14.8856C10.9965 13.9354 10.2775 12.9789 9.49603 12.0286L11.6967 9.18399C11.7593 9.16517 11.8718 9.13395 12.0094 9.13395C12.1156 9.14023 12.197 9.16517 12.2594 9.18399L14.4976 11.9849L12.1407 14.8856ZM20.1243 16.3736L16.3732 12.0286L20.1243 7.62096V16.3736Z" fill="url(#paint0_linear_364_4847)"/>
<defs>
<linearGradient id="paint0_linear_364_4847" x1="12" y1="4.49805" x2="12" y2="19.502" gradientUnits="userSpaceOnUse">
<stop stop-color="#39A3DB"/>
<stop offset="1" stop-color="#1B3586"/>
</linearGradient>
</defs>
</svg>

<svg xmlns="http://www.w3.org/2000/svg" width="24" height="24" fill="none" viewBox="0 0 24 24">
    <path fill="url(#QKC__a)" d="M21.387 4.551a1 1 0 0 0-1.1.32l-4.851 5.876c-.882-1.082-1.77-2.05-2.658-3.132a1 1 0 0 0-.706-.363c-.531-.037-.857.363-.888.388-.875 1.081-1.794 2.025-2.676 3.107L3.72 4.895c-.406-.375-.944-.475-1.313-.262A.97.97 0 0 0 2 5.12v13.792c.025.05.188.406.606.544.463.15.838-.113.876-.138l5.014-6.07c.963 1.169 1.925 2.213 2.888 3.382.069.044.294.188.6.175.282-.019.476-.137.544-.187l2.907-3.37 4.552 5.476c.331.663 1.038.92 1.5.7.413-.2.5-.73.513-.793V5.37a.9.9 0 0 0-.613-.82M3.87 16.374V7.62l3.751 4.42zm8.272-1.488a.25.25 0 0 1-.157.075c-.112.012-.187-.07-.206-.075-.782-.95-1.5-1.907-2.282-2.857l2.2-2.845c.063-.019.176-.05.313-.05.107.006.188.031.25.05l2.239 2.8zm7.983 1.488-3.75-4.345 3.75-4.408z"/>
    <defs>
        <linearGradient id="QKC__a" x1="12" x2="12" y1="4.498" y2="19.502" gradientUnits="userSpaceOnUse">
            <stop stop-color="#39A3DB"/>
            <stop offset="1" stop-color="#1B3586"/>
        </linearGradient>
    </defs>
</svg>
